X:1
T:Leroy's
R:waltz
C: Larry Unger
Z:play dotted
M:3/4
L:1/8
Q:1/4=130
K:A
C EF|"A"A2-Ac AF|E2 EF AB|"D7"B=c AF AF|=cA FE EF|!
"A"A2- Ac AF|E2 EF AF|"E"E4F2|E3C EF|!
"A"A2-Ac AF|E2 EF AB|"D7"B=c AF AF|=cA F2 EF|!
"A"A2 c2 AF|"E"E2 CE FB|"A"A6-|A6|]!
"A"c2 e2 cA|"D7"=c6|"A"ce fe cA|"D7"F6|!
"A"EF AB ce|=gf eg fe|"E7"e6-|e4e=g|!
"A7"(3a=ge (3age (3age|=g3a ge|"D7"f2 =cA cf|=c6|!
"A"e=g ag eA|"E7"=c2 c2 AF|"A"A6-|A6|]
